svg/color/bitc.svg

<?xml version="1.0" encoding="UTF-8" ?>
<!DOCTYPE svg PUBLIC "-//W3C//DTD SVG 1.1//EN" "http://www.w3.org/Graphics/SVG/1.1/DTD/svg11.dtd">
<svg width="250pt" height="250pt" viewBox="0 0 250 250" version="1.1" xmlns="http://www.w3.org/2000/svg">
<g id="#ffffffff">
<path fill="#ffffff" opacity="1.00" d=" M 0.00 0.00 L 136.69 0.00 C 130.35 1.78 123.80 2.50 117.36 3.76 C 118.97 13.05 120.22 22.44 122.58 31.59 C 129.25 30.26 135.99 30.98 142.69 31.54 C 141.62 20.93 138.92 10.57 137.56 0.00 L 250.00 0.00 L 250.00 250.00 L 0.00 250.00 L 0.00 0.00 M 85.24 7.74 C 85.34 17.90 88.69 27.66 89.59 37.72 C 96.38 38.53 102.12 33.77 108.79 33.30 C 108.65 23.53 106.61 13.85 104.43 4.37 C 98.03 5.49 91.63 6.59 85.24 7.74 M 62.91 76.91 C 41.56 106.49 42.33 150.19 65.31 178.65 C 78.93 195.99 100.06 206.94 121.99 208.63 C 136.23 209.50 150.88 208.40 164.21 202.94 C 176.33 198.10 186.80 189.86 195.55 180.28 C 187.95 172.85 180.65 165.12 173.04 157.69 C 164.52 165.42 154.88 172.65 143.40 175.10 C 129.19 178.32 113.13 175.86 101.99 165.99 C 79.75 147.27 78.37 109.40 98.91 88.93 C 108.81 78.56 123.94 73.95 138.01 76.14 C 151.04 77.71 162.51 85.09 171.96 93.83 C 179.29 85.05 186.89 76.49 194.42 67.88 C 189.97 63.54 185.23 59.49 180.01 56.12 C 163.59 45.24 143.29 42.11 123.94 43.40 C 100.01 44.88 76.75 57.20 62.91 76.91 M 132.35 88.14 C 132.59 92.84 133.78 97.41 134.56 102.04 C 137.25 117.82 140.37 133.53 142.88 149.34 C 143.73 153.46 144.56 157.59 144.75 161.81 C 152.02 159.63 157.91 154.58 163.60 149.77 C 160.98 131.44 157.10 113.31 154.25 95.01 C 147.47 91.37 140.28 87.82 132.35 88.14 M 102.70 103.57 C 101.82 105.97 102.39 108.62 102.62 111.10 C 105.22 125.74 108.01 140.35 110.46 155.01 C 110.69 158.74 114.55 160.22 117.48 161.46 C 122.34 163.16 127.58 165.23 132.78 163.83 C 128.68 139.35 124.06 114.96 120.07 90.47 C 119.27 90.49 117.68 90.53 116.89 90.55 C 111.46 93.98 105.90 97.84 102.70 103.57 M 155.26 218.62 C 156.76 227.36 158.10 236.13 159.83 244.82 C 166.54 244.79 173.12 243.27 179.72 242.22 C 179.22 232.06 175.75 222.29 175.28 212.12 C 168.55 214.10 162.16 217.15 155.26 218.62 M 122.29 221.36 C 123.52 230.50 125.74 239.48 126.73 248.64 C 133.52 249.17 140.13 247.28 146.79 246.34 C 146.69 237.88 143.80 229.77 143.33 221.34 C 136.32 221.32 129.30 221.31 122.29 221.36 Z" />
</g>
<g id="#f0b736ff">
<path fill="#f0b736" opacity="1.00" d=" M 136.69 0.00 L 137.56 0.00 C 138.92 10.57 141.62 20.93 142.69 31.54 C 135.99 30.98 129.25 30.26 122.58 31.59 C 120.22 22.44 118.97 13.05 117.36 3.76 C 123.80 2.50 130.35 1.78 136.69 0.00 Z" />
<path fill="#f0b736" opacity="1.00" d=" M 85.24 7.74 C 91.63 6.59 98.03 5.49 104.43 4.37 C 106.61 13.85 108.65 23.53 108.79 33.30 C 102.12 33.77 96.38 38.53 89.59 37.72 C 88.69 27.66 85.34 17.90 85.24 7.74 Z" />
<path fill="#f0b736" opacity="1.00" d=" M 132.35 88.14 C 140.28 87.82 147.47 91.37 154.25 95.01 C 157.10 113.31 160.98 131.44 163.60 149.77 C 157.91 154.58 152.02 159.63 144.75 161.81 C 144.56 157.59 143.73 153.46 142.88 149.34 C 140.37 133.53 137.25 117.82 134.56 102.04 C 133.78 97.41 132.59 92.84 132.35 88.14 Z" />
<path fill="#f0b736" opacity="1.00" d=" M 102.70 103.57 C 105.90 97.84 111.46 93.98 116.89 90.55 C 117.68 90.53 119.27 90.49 120.07 90.47 C 124.06 114.96 128.68 139.35 132.78 163.83 C 127.58 165.23 122.34 163.16 117.48 161.46 C 114.55 160.22 110.69 158.74 110.46 155.01 C 108.01 140.35 105.22 125.74 102.62 111.10 C 102.39 108.62 101.82 105.97 102.70 103.57 Z" />
<path fill="#f0b736" opacity="1.00" d=" M 155.26 218.62 C 162.16 217.15 168.55 214.10 175.28 212.12 C 175.75 222.29 179.22 232.06 179.72 242.22 C 173.12 243.27 166.54 244.79 159.83 244.82 C 158.10 236.13 156.76 227.36 155.26 218.62 Z" />
<path fill="#f0b736" opacity="1.00" d=" M 122.29 221.36 C 129.30 221.31 136.32 221.32 143.33 221.34 C 143.80 229.77 146.69 237.88 146.79 246.34 C 140.13 247.28 133.52 249.17 126.73 248.64 C 125.74 239.48 123.52 230.50 122.29 221.36 Z" />
</g>
<g id="#3e45adff">
<path fill="#3e45ad" opacity="1.00" d=" M 62.91 76.91 C 76.75 57.20 100.01 44.88 123.94 43.40 C 143.29 42.11 163.59 45.24 180.01 56.12 C 185.23 59.49 189.97 63.54 194.42 67.88 C 186.89 76.49 179.29 85.05 171.96 93.83 C 162.51 85.09 151.04 77.71 138.01 76.14 C 123.94 73.95 108.81 78.56 98.91 88.93 C 78.37 109.40 79.75 147.27 101.99 165.99 C 113.13 175.86 129.19 178.32 143.40 175.10 C 154.88 172.65 164.52 165.42 173.04 157.69 C 180.65 165.12 187.95 172.85 195.55 180.28 C 186.80 189.86 176.33 198.10 164.21 202.94 C 150.88 208.40 136.23 209.50 121.99 208.63 C 100.06 206.94 78.93 195.99 65.31 178.65 C 42.33 150.19 41.56 106.49 62.91 76.91 Z" />
</g>
</svg>

<?xml version="1.0" encoding="utf-8"?>
<!-- Generator: Adobe Illustrator 26.0.3, SVG Export Plug-In . SVG Version: 6.00 Build 0)  -->
<svg version="1.1" id="Layer_1" xmlns="http://www.w3.org/2000/svg" xmlns:xlink="http://www.w3.org/1999/xlink" x="0px" y="0px"
	 viewBox="0 0 250 250" style="enable-background:new 0 0 250 250;" xml:space="preserve">
<style type="text/css">
	.st0{fill:#F0B736;}
	.st1{fill:#3E45AD;}
</style>
<g id="_x23_f0b736ff">
	<path class="st0" d="M136.7,0h0.9c1.4,10.6,4.1,20.9,5.1,31.5c-6.7-0.6-13.4-1.3-20.1,0c-2.4-9.1-3.6-18.5-5.2-27.8
		C123.8,2.5,130.4,1.8,136.7,0z"/>
	<path class="st0" d="M85.2,7.7c6.4-1.1,12.8-2.2,19.2-3.4c2.2,9.5,4.2,19.2,4.4,28.9c-6.7,0.5-12.4,5.2-19.2,4.4
		C88.7,27.7,85.3,17.9,85.2,7.7z"/>
	<path class="st0" d="M132.4,88.1c7.9-0.3,15.1,3.2,21.9,6.9c2.9,18.3,6.7,36.4,9.4,54.8c-5.7,4.8-11.6,9.9-18.9,12
		c-0.2-4.2-1-8.3-1.9-12.5c-2.5-15.8-5.6-31.5-8.3-47.3C133.8,97.4,132.6,92.8,132.4,88.1z"/>
	<path class="st0" d="M102.7,103.6c3.2-5.7,8.8-9.6,14.2-13c0.8,0,2.4-0.1,3.2-0.1c4,24.5,8.6,48.9,12.7,73.4
		c-5.2,1.4-10.4-0.7-15.3-2.4c-2.9-1.2-6.8-2.7-7-6.5c-2.4-14.7-5.2-29.3-7.8-43.9C102.4,108.6,101.8,106,102.7,103.6z"/>
	<path class="st0" d="M155.3,218.6c6.9-1.5,13.3-4.5,20-6.5c0.5,10.2,3.9,19.9,4.4,30.1c-6.6,1.1-13.2,2.6-19.9,2.6
		C158.1,236.1,156.8,227.4,155.3,218.6z"/>
	<path class="st0" d="M122.3,221.4c7-0.1,14,0,21,0c0.5,8.4,3.4,16.5,3.5,25c-6.7,0.9-13.3,2.8-20.1,2.3
		C125.7,239.5,123.5,230.5,122.3,221.4z"/>
</g>
<g id="_x23_3e45adff">
	<path class="st1" d="M62.9,76.9c13.8-19.7,37.1-32,61-33.5c19.3-1.3,39.6,1.8,56.1,12.7c5.2,3.4,10,7.4,14.4,11.8
		c-7.5,8.6-15.1,17.2-22.5,26c-9.5-8.7-20.9-16.1-34-17.7c-14.1-2.2-29.2,2.4-39.1,12.8c-20.5,20.5-19.2,58.3,3.1,77.1
		c11.1,9.9,27.2,12.3,41.4,9.1c11.5-2.5,21.1-9.7,29.6-17.4c7.6,7.4,14.9,15.2,22.5,22.6c-8.8,9.6-19.2,17.8-31.3,22.7
		c-13.3,5.5-28,6.6-42.2,5.7c-21.9-1.7-43.1-12.6-56.7-30C42.3,150.2,41.6,106.5,62.9,76.9z"/>
</g>
</svg>
